!!!id: EG034
!!!page: 309-311
!!!COM: Anonymous
!!!LYR: Anonymous
!!!PTL@@FR: Chansons Populaires du Canada
!!!OTL@@FR: D'où viens-tu, bergère?
!!!PUB: G. E. Desbarats
!!!YEM:
!!!PDT: 1865
!!!SMA:
!!!OMD:
!!!AGN-Laforte: chanson strophique
!!!AGN-type:
!!!AGN-rime:
**kern	**text	**text	**text	**text	**text
*clefG2	*	*	*	*	*
*M2/4	*	*	*	*	*
*k[]	*	*	*	*	*
*C:	*	*	*	*	*
*	*v:1	*v:2	*v:3	*v:4	*v:5
*	*pline:1	*pline:4	*pline:7	*pline:10	*pline:13
=1	=1	=1	=1	=1	=1
4cc	—D'où	—Qu'as-	—Rien	—Rien	—Rien
4ee	viens-	-tu	de	de	de
=2	=2	=2	=2	=2	=2
8dd	-tu,	vu,	plus,	plus,	plus,
8b	ber-	ber-	ber-	ber-	ber-
8cc	-gè-	-gè-	-gè-	-gè-	-gè-
8g	-re,	-re,	-re,	-re,	-re,
=3	=3	=3	=3	=3	=3
*	*bis	*bis	*bis	*bis	*bis
4cc	D'où	Qu'as-	Rien	Rien	Rien
4ee	viens-	-tu	de	de	de
=4	=4	=4	=4	=4	=4
4dd	-tu?	vu?	plus?	plus?	plus?
*	*Xbis	*Xbis	*Xbis	*Xbis	*Xbis
4r	.	.	.	.	.
!!LO:PB:g=original
=5	=5	=5	=5	=5	=5
*	*pline:2	*pline:5	*pline:8	*pline:11	*pline:14
8g	—Je	—J'ai	—Saint'	—Ya	—Ya
8g	viens	vu	Ma-	le	trois
8a	de	dans	-rie,	boeuf	pe-
8b	l'é-	le	sa	et	-tit
=6	=6	=6	=6	=6	=6
4cc	-ta-	crè-	mè-	l'â-	an-
4g	-ble,	-che	-re,	-ne	-ges
=7	=7	=7	=7	=7	=7
8cc	De	Un	Q[ui] lui	Qui	De-
8cc	m'y	pe-	fait	sont	-scen-
8dd	pro-	-tit	boir'	par	-dus
8ee	-me-	en-	du	de-	du
=8	=8	=8	=8	=8	=8
2dd	-ner;	-fant	lait,	-vant,	ciel
!!LO:PB:g=original
=9	=9	=9	=9	=9	=9
*	*pline:3	*pline:6	*pline:9	*pline:12	*pline:15
8g	J'ai	Sur	Saint	A-	Chan-
8g	vu	la	Jo-	-vec	-tant
8a	un	pail-	-seph,	leur	les
8b	mi-	-le	son	ha-	lou-
=10	=10	=10	=10	=10	=10
4cc	-ra-	fraî-	pè-	-lei-	-an-
4g	-cle	-che	-re,	-ne	-ges
=11	=11	=11	=11	=11	=11
8cc	Ce	Mis	Qui	Ré-	Du
8ee	soir	bien	trem-	-chauf-	Pèr[e]
8dd	ar-	ten-	-ble	-fent	é-
8dd	-ri-	-dre-	de	l'en-	-ter-
=12	=12	=12	=12	=12	=12
2cc	-vé.	-ment.	froid.	-fant.	-nel.
==	==	==	==	==	==
*-	*-	*-	*-	*-	*-
!!!EED-1: Isaac Howie
!!!EEV-1: 2026/01/18
